!!!!SEGMENT: pl-wnifc--13846--044_anonim--piesni-polskie-i-ruskie-ludu-galicyjskiego-44-biezy-konik-biezy.krn
!!!kernsource:
!!!cenid: 18xx:3266
!!!COM: Anonim
!!!COM-rismid: pe30004985
!!!CDT:
!!!CNT:
!!!GTL: Pieśni polskie i ruskie ludu galicyjskiego
!!!OTL: 44. Bieży konik, bieży
!!!PDT: 1833
!!!AGN:
!!!SMS-siglum: PL-Wnifc
!!!SMS-shelfmark: 13846
!!!SMS-shelfwork: 044 G
!!!NIFC-rismid: 1001036932
!!!URL-scan: http://repozytorium.nifc.pl/skany/pl-wnifc-nut--13846
!!!ONB-nifc:
!!!AIN: 1 piano 1 vox
!!!key: G
**kern	**kern	**kern	**text
*part2	*part2	*part1	*part1
*staff3	*staff2	*staff1	*staff1
*I"FORTEPIAN.	*I"FORTEPIAN.	*I"GŁOS.	*
*Ipiano	*Ipiano	*Ivox	*
*ICklav	*ICklav	*ICvox	*
*IGacmp	*IGacmp	*IGsolo	*
*clefF4	*clefG2	*clefG2	*
*k[f#]	*k[f#]	*k[f#]	*
*G:	*G:	*G:	*
*M2/4	*M2/4	*M2/4	*
=1-	=1-	=1-	=1-
!	!LO:TX:a:t=D.b.B.\n100.:rj	!LO:TX:a:t=Krakowiak.	!
!	!LO:S:s=1:note:problem=note-level slur	!	!
8GG\L	(<8b\^^L	8b\	Bie-
.	8qb/)	8qb/	.
8B\ 8G\|	8dd\J	8dd\	-ży
(>8d\ 8B\	8.g/L	(<8.g/L	ko-
8B\J 8G\)	.	.	.
.	16b/Jk	16b/Jk)	.
=2	=2	=2	=2
.	(<8qb/	.	.
8DD/L	8a/)	(<16b/LL	-nik,
.	.	16a/JJ)	.
8F#/ 8D/	4a/	4a/	bie-
(<8c/ 8F#/	.	.	.
8F#/J 8D/)	(<16a/LL	(<16a/LL	-ży,
.	16g#X/JJ)	16g#X/JJ)	.
!!LO:LB:g=original
=3	=3	=3	=3
*^	*	*	*
!LO:N:vis=2	!	!	!	!
8DD/L	2DD\	8a/L	8a/	bar-
.	.	(<8qa/	(>8qa/	.
(<8F#/ [<8D/	.	8cc/J)	8cc\)	-dzo
8c/ 8A/ 8D/]	.	8.f#/L	(<8.f#/L	się
8F#/J 8D/)	.	.	.	.
.	.	16a/Jk	16a/Jk)	.
=4	=4	=4	=4	=4
!LO:N:vis=2	!	!	!	!
8GG/L	2GG\	8g/	8g/	za-
8G/ 8D/	.	4g/	4g/	-dy-
8B/ 8G/	.	.	.	.
8G/J 8D/	.	(<16b/LL	(<16b/LL	-szał
.	.	16a/JJ)	16a/JJ)	.
!!LO:LB:g=original
=5	=5	=5	=5	=5
!LO:N:vis=2	!	!	!	!
8GG/L|	2GG\	8b\	8b\	nie-
.	.	(>8qb/	(<8qb/	.
(<8B/ 8G/	.	8dd\)	8dd\)	-po-
8d/ [>8B/	.	8.g/L	(<8.g/L	-wiém
8B/]J 8G/)	.	.	.	.
.	.	16b/Jk	16b/Jk)	.
=6	=6	=6	=6	=6
.	.	(<8qb/	(<8qb/	.
!LO:N:vis=2	!	!	!	!
8DD/L	2DD\	8a/)	8a/)	ni-
[<8F#/ [<8D/	.	4a/	4a/	-ko-
8F#/] 8D/]	.	.	.	.
8F#/J 8D/	.	(<16a/LL	(<16a/LL	-mu,
.	.	16g#X/JJ)	16g#X/JJ)	.
!!LO:LB:g=original
=7	=7	=7	=7	=7
!LO:N:vis=2	!	!	!	!
8DD/L	2DD\	(>16a\LL	8a/	co
.	.	16b\)	.	.
(<8F#/ [<8D/	.	(>16cc\	8cc\	ja
.	.	16ee\JJ)	.	.
8c/ 8F#/ 8D/]	.	8.dd/L	(<8.f#/L	wczo-
8c/J 8F#/ 8D/)	.	.	.	.
.	.	16f#/Jk	16a/Jk)	.
=8	=8	=8	=8	=8
!LO:N:vis=2	!	!	!	!
8GG/L	2GG\	(<16a/LL	(<16a/LL	-raj
.	.	16g/JJ)	16g/JJ)	.
(<8D/	.	4g/	4g/	sły-
8B/ [<8G/	.	.	.	.
8G/]J 8D/)	.	8g/	8g/	-szał.
=9|!	=9|!	=9|!	=9|!	=9|!
!	!LO:N:vis=2	!	!	!
2GG/	8GG\L	8g/	8g/	Bie-
.	(>8B\ 8G\	8gg\ 8b\ 8g\	8gg\	-ży
.	8d\ 8B\	(>8.gg\L 8.b\	(>8.gg\L	ko-
.	8B\J 8G\)	.	.	.
.	.	16ff#\Jk 16dd\)	16ff#\Jk)	.
!!LO:PB:g=original
=10	=10	=10	=10	=10
.	.	.	8qff#/	.
!LO:N:vis=2	!	!	!	!
(>8GG/L	2GG\	(>16gg\LL 16ee\	8ee\	nik,
.	.	16ee\JJ 16cc\)	.	.
!LO:S:s=1:note:problem=note-level slur	!	!	!	!
(<8c\ 8G\	.	4ee\ 4cc\	4ee\	bie-
8e\ 8c\)	.	.	.	.
8c\J 8G\)	.	(>16ee\LL 16cc\	(>16ee\LL	-ży,
.	.	16dd#X\JJ 16b\)	16dd#X\JJ)	.
=11	=11	=11	=11	=11
!LO:N:vis=2	!	!	!	!
8GG/L	2GG\	(>16ee\LL 16cc\	(>16ee\LL	grzy-
.	.	16dd#X\ 16b\)	16dd#X\JJ)	.
(>[<8c\ 8G\	.	(>16ee\ 16cc\	(>16ee\LL	-wa
.	.	16ff#\JJ 16ddn\)	16ff#\JJ)	.
8e\ 8c\_< [<8G\	.	8.gg\L 8.ee\	(>8.gg\L	mu
8c\]J 8G\])	.	.	.	.
.	.	16ee\Jk 16cc\	16ee\Jk)	.
!!LO:LB:g=original
=12	=12	=12	=12	=12
.	.	8qee/ 8qcc/	(<8qee/	.
!LO:N:vis=2	!	!	!	!
(>8GG/L	2GG\	8dd\ 8b\	8ddn\)	się
8B\ [<8G\	.	4dd\ 4b\	4dd\	je-
8d\ 8B\ 8G\]	.	.	.	.
8d\J 8G\)	.	(>16dd\LL 16b\	(>16dd\LL	-rży;
.	.	16cc\JJ 16a\)	16cc\JJ)	.
=13	=13	=13	=13	=13
!LO:N:vis=2	!	!	!	!
8GG/L	2GG\	8b\ 8g\	8b\	-nie-
(>8B\ [<8G\	.	(>16b\LL	(>16b\LL	-chaj
.	.	16dd\JJ)	16dd\JJ)	.
8d\ 8B\ 8G\]	.	(<8.g/L	(>8.g\L	ża-
8G\J)	.	.	.	.
.	.	16b/Jk)	16b\Jk)	.
*v	*v	*	*	*
!!LO:LB:g=original
=14	=14	=14	=14
8DD/L	(<16b/LL	(<16b/LL	-den
.	16a/JJ)	16a/JJ)	.
(<[<8F#/ [<8D/	4a/	4a/	chło-
8c/ 8F#/] 8D/]	.	.	.
8F#/J 8D/)	(<16a/LL	(<16a/LL	-piec
.	16g#X/JJ)	16g#X/JJ)	.
=15	=15	=15	=15
*^	*	*	*
!LO:N:vis=2	!	!	!	!
8DD/L	2DD\	8a\	8a/	pa-
(<8F#/ [<8D/	.	(>16a\LL	(<16a/LL	-nien-
.	.	16cc\JJ)	16cc/JJ)	.
8c/ 8A/ 8D/]	.	(<8.f#/L	(<8.f#/L	-kom
8c/J 8A/ 8D/)	.	.	.	.
.	.	16a/Jk)	16a/Jk)	.
=16	=16	=16	=16	=16
!LO:N:vis=2	!	!	!	!
(<8GG/L	2GG\	(<16a/LL	(<16a/LL	nie
.	.	16g/JJ)	16g/JJ)	.
8D/	.	4g/	4g/	wie-
8B/ 8G/ 8D/	.	.	.	.
!	!	!LO:N:vis=8.	!	!
8G/J 8D/)	.	8g/	8g/	-rzy.
*v	*v	*	*	*
==	==	==	==
*-	*-	*-	*-
!!!system-decoration: <s1>{(s2,s3)}
!!!RDF**kern: > = above
!!!RDF**kern: < = below
!!!RDF**kern: | = vertical stroke
!!!ENC: Andrzej Kubiczek
!!!END: 2021-11-11
